X: 081
T: Marion Dunn, a Reel
C: attr. John French (1753-1803)
R: reel
B: "John French Collection", John French ed. p.8 #1
S: http://www.heallan.com/french.asp
Z: 2012 John Chambers <jc:trillian.mit.edu>
N: There are no D's in the tune, so the key could be F minor.
M: C
L: 1/8
K: Fdor
c |\
(A/B/c) (Fc) (A/B/c) (Fc) | Be-eB GE-EB | (A/B/c) (Fc) (A/B/c) (Fc) | Gf-fc AFF :|
c |\
fcaf cfAc | BeGB (E/F/G/A/ B).G | Ffaf cfAc | BeEG cFFc |
fcaf cfAc | BeGB (E/F/G/A/ B).G | Fagf eBGB | AcBG AFF |]

%%sep 2 1 500
%%sep 1 1 500

